images/icons/links/discord.svg

<svg width="40" height="40" viewBox="0 0 40 40" fill="none" xmlns="http://www.w3.org/2000/svg">
<path d="M40 20C40 31.0457 31.0457 40 20 40C8.9543 40 0 31.0457 0 20C0 8.9543 8.9543 0 20 0C31.0457 0 40 8.9543 40 20Z" fill="#7289DA"/>
<path d="M26.8914 11H13.1086C11.9463 11 11 11.92 11 13.06V26.58C11 27.72 11.9463 28.64 13.1086 28.64H24.7726L24.2274 26.79L25.544 27.98L26.7886 29.1L29 31V13.06C29 11.92 28.0537 11 26.8914 11ZM22.9211 24.06C22.9211 24.06 22.5509 23.63 22.2423 23.25C23.5897 22.88 24.104 22.06 24.104 22.06C23.6823 22.33 23.2811 22.52 22.9211 22.65C22.4069 22.86 21.9131 23 21.4297 23.08C20.4423 23.26 19.5371 23.21 18.7657 23.07C18.1794 22.96 17.6754 22.8 17.2537 22.64C17.0171 22.55 16.76 22.44 16.5029 22.3C16.472 22.28 16.4411 22.27 16.4103 22.25C16.3897 22.24 16.3794 22.23 16.3691 22.22C16.184 22.12 16.0811 22.05 16.0811 22.05C16.0811 22.05 16.5749 22.85 17.8811 23.23C17.5726 23.61 17.192 24.06 17.192 24.06C14.9189 23.99 14.0549 22.54 14.0549 22.54C14.0549 19.32 15.536 16.71 15.536 16.71C17.0171 15.63 18.4263 15.66 18.4263 15.66L18.5291 15.78C16.6777 16.3 15.824 17.09 15.824 17.09C15.824 17.09 16.0503 16.97 16.4309 16.8C17.5314 16.33 18.4057 16.2 18.7657 16.17C18.8274 16.16 18.8789 16.15 18.9406 16.15C19.568 16.07 20.2777 16.05 21.0183 16.13C21.9954 16.24 23.0446 16.52 24.1143 17.09C24.1143 17.09 23.3017 16.34 21.5531 15.82L21.6971 15.66C21.6971 15.66 23.1063 15.63 24.5874 16.71C24.5874 16.71 26.0686 19.32 26.0686 22.54C26.0686 22.54 25.1943 23.99 22.9211 24.06ZM18.1383 19.39C17.552 19.39 17.0891 19.89 17.0891 20.5C17.0891 21.11 17.5623 21.61 18.1383 21.61C18.7246 21.61 19.1874 21.11 19.1874 20.5C19.1977 19.89 18.7246 19.39 18.1383 19.39ZM21.8926 19.39C21.3063 19.39 20.8434 19.89 20.8434 20.5C20.8434 21.11 21.3166 21.61 21.8926 21.61C22.4789 21.61 22.9417 21.11 22.9417 20.5C22.9417 19.89 22.4789 19.39 21.8926 19.39Z" fill="white"/>
</svg>

<svg width="40" height="40" fill="none" xmlns="http://www.w3.org/2000/svg"><path d="M40 20c0 11.046-8.954 20-20 20S0 31.046 0 20 8.954 0 20 0s20 8.954 20 20z" fill="#7289DA"/><path d="M26.891 11H13.11c-1.164 0-2.11.92-2.11 2.06v13.52c0 1.14.946 2.06 2.109 2.06h11.664l-.546-1.85 1.317 1.19 1.245 1.12L29 31V13.06c0-1.14-.946-2.06-2.109-2.06zm-3.97 13.06s-.37-.43-.679-.81c1.348-.37 1.862-1.19 1.862-1.19a5.96 5.96 0 01-1.183.59c-.514.21-1.008.35-1.491.43-.988.18-1.893.13-2.664-.01a8.821 8.821 0 01-1.512-.43c-.237-.09-.494-.2-.751-.34-.031-.02-.062-.03-.093-.05a.142.142 0 01-.04-.03c-.186-.1-.289-.17-.289-.17s.494.8 1.8 1.18c-.308.38-.689.83-.689.83-2.273-.07-3.137-1.52-3.137-1.52 0-3.22 1.481-5.83 1.481-5.83 1.481-1.08 2.89-1.05 2.89-1.05l.103.12c-1.851.52-2.705 1.31-2.705 1.31s.226-.12.607-.29c1.1-.47 1.975-.6 2.335-.63.061-.01.113-.02.175-.02a8.95 8.95 0 012.077-.02c.977.11 2.027.39 3.096.96 0 0-.812-.75-2.56-1.27l.143-.16s1.41-.03 2.89 1.05c0 0 1.482 2.61 1.482 5.83 0 0-.875 1.45-3.148 1.52zm-4.783-4.67c-.586 0-1.049.5-1.049 1.11 0 .61.473 1.11 1.05 1.11.586 0 1.048-.5 1.048-1.11.01-.61-.462-1.11-1.049-1.11zm3.755 0c-.587 0-1.05.5-1.05 1.11 0 .61.474 1.11 1.05 1.11.586 0 1.049-.5 1.049-1.11 0-.61-.463-1.11-1.05-1.11z" fill="#fff"/></svg>
